icons/cml.svg

<!--
  - The MIT License (MIT)
  -
  - Copyright (c) 2015-2024 Elior "Mallowigi" Boukhobza
  -
  - Permission is hereby granted, free of charge, to any person obtaining a copy
  - of this software and associated documentation files (the "Software"), to deal
  - in the Software without restriction, including without limitation the rights
  - to use, copy, modify, merge, publish, distribute, sublicense, and/or sell
  - copies of the Software, and to permit persons to whom the Software is
  - furnished to do so, subject to the following conditions:
  -
  - The above copyright notice and this permission notice shall be included in all
  - copies or substantial portions of the Software.
  -
  - THE SOFTWARE IS PROVIDED "AS IS", WITHOUT WARRANTY OF ANY KIND, EXPRESS OR
  - IMPLIED, INCLUDING BUT NOT LIMITED TO THE WARRANTIES OF MERCHANTABILITY,
  - FITNESS FOR A PARTICULAR PURPOSE AND NONINFRINGEMENT. IN NO EVENT SHALL THE
  - AUTHORS OR COPYRIGHT HOLDERS BE LIABLE FOR ANY CLAIM, DAMAGES OR OTHER
  - LIABILITY, WHETHER IN AN ACTION OF CONTRACT, TORT OR OTHERWISE, ARISING FROM,
  - OUT OF OR IN CONNECTION WITH THE SOFTWARE OR THE USE OR OTHER DEALINGS IN THE
  - SOFTWARE.
  -
  -->

<svg version="1.1"  width="16px" height="16px" xmlns="http://www.w3.org/2000/svg"
     x="0px"
     y="0px" viewBox="0 0 400 400" enable-background="new 0 0 400 400" xml:space="preserve">
    <path fill="#E0044F"
          data-iconColor="ContextMapper" d="
M375.085449,194.000000
	C375.085541,224.989990 374.965790,255.480881 375.194733,285.969147
	C375.236511,291.537201 373.385620,294.850525 368.472839,297.434082
	C314.358063,325.892334 260.308960,354.475708 206.292572,383.120331
	C202.337250,385.217834 198.981812,385.103760 195.064407,383.025146
	C140.955338,354.314789 86.807564,325.677185 32.611866,297.130737
	C27.907032,294.652557 25.993917,291.315521 26.004345,286.011108
	C26.116032,229.196640 26.114958,172.381821 26.005945,115.567352
	C25.995684,110.218506 28.105543,107.002617 32.771275,104.546043
	C86.876839,76.058693 140.936829,47.484493 194.944794,18.812572
	C199.297958,16.501547 202.934265,16.869268 207.118698,19.087158
	C260.782135,47.530529 314.479340,75.910446 368.234985,104.179047
	C373.270447,106.827042 375.270233,110.229034 375.207306,116.026482
	C374.927094,141.848389 375.085541,167.675049 375.085449,194.000000
M129.112534,71.575447
	C101.482361,86.179062 73.864777,100.806633 46.202965,115.350082
	C43.367046,116.841095 41.872768,118.368896 41.884262,122.040100
	C42.049068,174.689362 42.024124,227.339355 41.923306,279.988922
	C41.917416,283.065613 42.845806,284.692871 45.576893,286.129364
	C96.160629,312.735107 146.704300,339.417297 197.192154,366.204468
	C199.853699,367.616577 201.687531,367.592133 204.330811,366.189575
	C254.651138,339.489319 305.021118,312.882355 355.445465,286.379089
	C358.389771,284.831543 359.301147,283.115295 359.294250,279.853210
	C359.183228,227.370270 359.176300,174.886948 359.303131,122.404091
	C359.311859,118.788307 358.293335,116.874382 355.035156,115.162491
	C304.749939,88.742058 254.529312,62.198486 204.349274,35.578762
	C201.691040,34.168610 199.709549,34.197960 197.101624,35.586880
	C174.686203,47.524731 152.199203,59.328171 129.112534,71.575447
z"/>
  <path d="
M198.992035,317.071198
	C184.756866,309.664520 170.521698,302.257874 155.717865,294.535126
	C152.844040,293.113983 150.538895,292.008942 148.233734,290.903870
	C148.189880,290.741669 148.146027,290.579498 148.045181,289.803101
	C147.944183,287.870239 147.900208,286.551575 147.895966,284.748810
	C147.956436,269.522095 147.943390,254.779251 148.043457,240.037155
	C148.055084,238.323349 148.693222,236.613800 149.382217,234.992218
	C166.771469,244.099869 183.819412,253.117569 200.898514,262.590454
	C200.954224,280.372650 200.978790,297.699615 201.008041,315.412659
	C201.138779,316.294250 201.264816,316.789825 201.390854,317.285370
	C201.390854,317.285370 201.300705,317.396912 200.891251,317.276245
	C199.985214,317.127472 199.488617,317.099335 198.992035,317.071198
z"/>
  <path d="
M112.037292,270.920807
	C106.080780,267.658356 100.190620,264.264923 94.134865,261.198486
	C91.734703,259.983124 90.866058,258.597656 90.891182,255.872437
	C91.047508,238.913681 90.998901,221.953033 91.424133,204.562805
	C94.783218,205.466629 97.736427,206.800659 100.907211,208.411072
	C103.403885,209.812790 105.682968,210.938126 107.986160,212.043610
	C108.010262,212.023743 107.951042,212.040833 108.143753,212.308533
	C109.553818,213.055130 110.771172,213.534042 111.994110,214.006470
	C111.999695,214.000000 111.990875,214.012375 112.139236,214.320206
	C115.829849,216.514038 119.372101,218.400040 123.130409,220.508270
	C124.491493,221.177917 125.636528,221.625336 127.023628,222.326691
	C132.789474,225.444946 138.313263,228.309265 143.867065,231.630157
	C143.942368,250.272202 143.987671,268.457672 143.688293,286.730164
	C133.560074,281.881226 123.776527,276.945221 113.992989,272.009247
	C113.992989,272.009247 114.000000,272.000000 113.853973,271.736267
	C113.151054,271.288635 112.594170,271.104706 112.037292,270.920807
z"/>
  <path d="
M94.062683,201.071350
	C93.031296,199.766785 91.109489,198.466660 91.102936,197.156967
	C91.013618,179.302383 91.189339,161.446503 91.812683,143.693024
	C109.489738,152.936249 126.653862,162.077377 143.860840,171.664581
	C143.933746,190.004868 143.963806,207.899048 143.633362,225.911499
	C136.748184,222.793655 130.196548,219.610565 123.705086,216.309143
	C113.802429,211.272858 103.941391,206.154739 94.062683,201.071350
z"/>
  <path d="
M143.817978,171.218491
	C126.653862,162.077377 109.489738,152.936249 92.182884,143.496979
	C98.640869,139.472931 105.195541,135.662369 111.853493,132.041718
	C121.032990,127.049805 130.209641,122.037392 139.576965,117.417946
	C141.661224,116.390099 144.534378,116.961945 147.591217,117.148117
	C149.538361,118.350494 150.902069,119.270164 152.344467,120.042976
	C166.604019,127.683022 180.876648,135.298706 194.926773,143.202072
	C177.744659,152.728058 160.781311,161.973282 143.817978,171.218491
z"/>
  <path d="
M309.938171,206.016068
	C310.046783,222.675049 310.258209,239.334915 310.112305,255.991669
	C310.096924,257.746338 308.386078,260.233734 306.771637,261.111053
	C290.833221,269.772217 274.748901,278.164886 258.340149,286.227112
	C257.923096,267.602661 257.871765,249.384766 258.152466,230.986679
	C260.560577,229.806503 262.670441,228.870453 264.707397,227.796204
	C277.973053,220.800217 291.194641,213.719604 304.516205,206.832260
	C306.053314,206.037552 308.118073,206.263397 309.938171,206.016068
z"/>
  <path d="
M309.994751,146.027802
	C310.082245,162.635010 310.238495,179.242584 310.147827,195.848816
	C310.139038,197.458511 308.602478,199.059845 307.043579,200.828079
	C305.676239,201.167984 304.984680,201.238266 304.412811,201.537399
	C290.878082,208.617447 277.348236,215.707062 263.852325,222.860611
	C263.065399,223.277740 262.572021,224.248657 261.705963,225.009491
	C261.469910,225.057129 261.057495,225.305893 260.785675,225.234222
	C259.665253,225.257156 258.816681,225.351791 257.947632,224.950104
	C257.880676,206.705902 257.834137,188.958038 258.111023,171.038086
	C274.936066,162.211884 291.437683,153.557770 308.209869,145.020355
	C308.985199,145.433990 309.489960,145.730896 309.994751,146.027802
z"/>
  <path d="
M307.939331,144.903656
	C291.437683,153.557770 274.936066,162.211884 257.784729,170.929199
	C240.119873,161.918564 223.104691,152.844742 206.143524,143.443848
	C221.777649,134.713455 237.357773,126.310150 252.999756,118.230301
	C253.493149,118.856506 253.924713,119.159264 254.356262,119.462021
	C254.566406,118.603615 254.776535,117.745209 254.986664,116.886795
	C254.986649,116.886795 255.257050,116.755783 255.800293,116.859421
	C261.708557,119.742386 267.002045,122.674416 272.469086,125.235992
	C275.163086,126.498268 278.177979,127.075699 281.047668,127.963020
	C281.047668,127.963020 280.992981,127.987991 281.033417,128.334503
	C285.149475,134.145691 290.871796,136.310043 297.412872,136.833527
	C297.412872,136.833527 297.717926,136.791092 297.891785,137.224564
	C301.356842,140.073242 304.648102,142.488449 307.939331,144.903656
M278.643738,133.426697
	C277.812958,132.820847 276.982178,132.214981 276.151398,131.609131
	C275.874146,132.471161 275.596893,133.333191 275.319641,134.195221
	C276.312744,134.137253 277.305847,134.079285 278.643738,133.426697
M297.537720,141.712875
	C296.961334,141.601471 296.384949,141.490067 295.808563,141.378662
	C295.803345,141.787125 295.798126,142.195602 295.792938,142.604080
	C296.372162,142.506866 296.951385,142.409653 297.537720,141.712875
z"/>
  <path d="
M208.277161,88.880524
	C208.277161,88.880524 208.655533,88.911499 208.951263,89.205704
	C209.478683,89.758385 209.767792,89.898438 210.114304,89.920059
	C210.114304,89.920059 210.037857,89.883598 210.077805,90.258812
	C212.128128,91.402031 214.138504,92.170036 216.148880,92.938042
	C216.667435,93.098854 217.186005,93.259674 218.007156,93.925354
	C218.889313,94.606819 219.468857,94.783424 220.048416,94.960037
	C220.048416,94.960037 220.006195,95.002502 220.120956,95.210480
	C220.533295,95.573616 220.830887,95.728783 221.128464,95.883942
	C221.128464,95.883942 221.116211,95.816193 221.130493,96.176804
	C224.559448,99.577370 228.098297,102.343155 233.072739,101.938484
	C233.072739,101.938484 232.989578,101.966141 233.064407,102.317337
	C234.235367,103.050957 235.331482,103.433388 236.427612,103.815811
	C236.427612,103.815819 236.729279,103.795021 236.897263,104.234177
	C241.039536,107.018044 245.006622,109.375351 249.015518,111.659302
	C249.168762,111.746605 249.725174,111.126282 250.093719,110.835693
	C250.772049,111.231201 251.450378,111.626701 251.896576,112.536720
	C241.871643,118.324036 232.123550,123.682205 222.271317,128.841492
	C214.925644,132.688171 207.445328,136.277695 199.706390,139.838120
	C182.929123,131.038559 166.470428,122.382591 150.078339,113.409943
	C151.083069,112.039055 152.021194,110.984848 152.959320,109.930649
	C152.959320,109.930656 153.007050,109.983643 153.287460,109.968758
	C154.027893,109.593781 154.487930,109.233681 154.947968,108.873596
	C154.947968,108.873596 154.976578,108.971321 155.359802,108.972710
	C160.457565,109.181297 163.749023,106.971771 165.973419,102.950073
	C165.973419,102.950073 166.002777,102.996330 166.288788,102.978821
	C167.042236,102.615974 167.509659,102.270638 167.977081,101.925301
	C167.977081,101.925301 167.994095,101.994331 168.275909,101.976364
	C169.035126,101.624184 169.512527,101.289963 169.989914,100.955750
	C169.989914,100.955750 169.999130,101.002205 170.371887,101.003311
	C172.837341,99.677856 174.930054,98.351280 177.022766,97.024704
	C177.479477,96.704437 177.936203,96.384155 178.884781,96.283386
	C183.898346,93.961517 188.420044,91.420143 192.941742,88.878761
	C192.941742,88.878761 192.991211,88.974770 193.359406,88.976028
	C197.185043,88.270996 200.642471,87.564690 204.099899,86.858383
	C204.099899,86.858391 204.026733,86.872101 204.175674,87.207932
	C205.642136,87.989349 206.959641,88.434937 208.277161,88.880524
z"/>
  <path d="
M194.126068,209.945221
	C197.567902,209.812515 201.009735,209.679810 204.749542,209.263489
	C217.210632,215.332840 229.397995,221.640076 241.521988,228.066818
	C245.128113,229.978378 248.556396,232.225479 251.761749,234.689331
	C234.593994,244.084961 217.730667,253.110107 200.867355,262.135254
	C183.819412,253.117569 166.771469,244.099869 149.431015,234.657867
	C149.857742,233.606308 150.487762,232.809570 151.309494,232.377106
	C165.567703,224.873230 179.849457,217.414108 194.126068,209.945221
z"/>
  <path d="
M200.898514,262.590454
	C217.730667,253.110107 234.593994,244.084961 251.838409,235.042114
	C252.482056,236.772369 252.962646,238.519058 252.972778,240.268463
	C253.057037,254.822891 253.054520,269.377838 253.153793,284.378876
	C244.026215,294.706329 231.373535,298.934967 219.945282,305.175964
	C218.363632,306.039734 217.084351,307.582367 215.436569,308.171143
	C212.810150,309.109619 209.991714,309.510742 207.212006,310.148865
	C208.615646,314.333893 204.231277,313.746918 201.368896,314.980865
	C200.978790,297.699615 200.954224,280.372650 200.898514,262.590454
M233.822525,293.215179
	C234.208389,293.749542 234.594269,294.283905 234.980133,294.818268
	C235.494263,294.138428 236.008408,293.458618 236.522552,292.778778
	C235.804062,292.814240 235.085571,292.849701 233.822525,293.215179
z"/>
  <path d="
M192.867355,201.155472
	C186.312592,204.310287 179.687531,207.328339 173.219604,210.652161
	C163.646301,215.571793 154.184494,220.708420 144.334534,225.772949
	C143.963806,207.899048 143.933746,190.004868 143.860840,171.664581
	C160.781311,161.973282 177.744659,152.728058 194.926773,143.202072
	C195.434555,144.670776 195.963699,146.418793 195.974380,148.169952
	C196.056702,161.663910 196.016235,175.158569 196.078323,188.652710
	C196.086563,190.445511 196.457504,192.236618 196.829041,194.789993
	C197.030533,196.612930 197.063461,197.674393 196.782227,198.907959
	C195.267838,199.771866 194.067596,200.463669 192.867355,201.155472
z"/>
  <path d="
M204.981445,143.981079
	C205.167603,143.954926 205.353775,143.928772 205.814743,143.836761
	C223.104691,152.844742 240.119873,161.918564 257.461304,171.101288
	C257.834137,188.958038 257.880676,206.705902 257.547119,224.962677
	C255.308029,224.819275 253.335648,224.383301 251.609070,223.478348
	C242.637436,218.775894 233.770828,213.872299 224.781250,209.205109
	C219.642334,206.537079 214.338806,204.186096 208.886703,201.459808
	C207.347763,200.467148 206.031525,199.707062 204.783630,198.561005
	C204.850800,197.135666 204.849579,196.096283 204.899567,194.587372
	C204.960999,177.405579 204.971222,160.693329 204.981445,143.981079
z"/>
</svg>

<svg xmlns="http://www.w3.org/2000/svg" xml:space="preserve" viewBox="0 0 400 400"><path fill="#e0044f" d="M375.085 194c0 30.99-.12 61.48.11 91.97.042 5.567-1.81 8.88-6.722 11.464-54.115 28.458-108.164 57.042-162.18 85.686-3.956 2.098-7.311 1.984-11.229-.095a60715 60715 0 0 0-162.452-85.894c-4.705-2.478-6.618-5.815-6.608-11.12q.167-85.222.002-170.444c-.01-5.348 2.1-8.564 6.765-11.021a53724 53724 0 0 0 162.174-85.733c4.353-2.311 7.99-1.944 12.174.274a55841 55841 0 0 0 161.116 85.092c5.035 2.648 7.035 6.05 6.972 11.847-.28 25.822-.121 51.649-.122 77.974M129.113 71.575c-27.63 14.604-55.248 29.232-82.91 43.775-2.836 1.491-4.33 3.019-4.319 6.69.165 52.65.14 105.3.04 157.949-.007 3.077.922 4.704 3.653 6.14a47756 47756 0 0 1 151.615 80.075c2.662 1.413 4.496 1.388 7.139-.014a43701 43701 0 0 1 151.114-79.81c2.945-1.548 3.856-3.265 3.85-6.527-.112-52.483-.119-104.966.008-157.449.009-3.616-1.01-5.53-4.268-7.242A42957 42957 0 0 1 204.35 35.58c-2.658-1.41-4.64-1.381-7.247.008-22.416 11.938-44.903 23.741-67.99 35.988" data-iconColor="ContextMapper"/><path d="M198.992 317.071a43259 43259 0 0 1-43.274-22.536c-2.874-1.421-5.18-2.526-7.484-3.631-.044-.162-.088-.325-.189-1.1a92 92 0 0 1-.149-5.055c.06-15.227.047-29.97.147-44.712.012-1.714.65-3.423 1.34-5.045 17.388 9.108 34.436 18.126 51.516 27.598.055 17.783.08 35.11.109 52.823.13.881.257 1.377.383 1.872 0 0-.09.112-.5-.009a16 16 0 0 0-1.899-.205m-86.955-46.151c-5.956-3.262-11.846-6.655-17.902-9.722-2.4-1.215-3.269-2.6-3.244-5.326.157-16.958.108-33.919.533-51.31 3.36.905 6.312 2.239 9.483 3.85 2.497 1.4 4.776 2.526 7.08 3.632.023-.02-.036-.003.157.265 1.41.746 2.627 1.225 3.85 1.697.006-.006-.003.006.145.314 3.69 2.194 7.233 4.08 10.991 6.188 1.361.67 2.507 1.117 3.894 1.819 5.765 3.118 11.29 5.982 16.843 9.303.075 18.642.12 36.828-.179 55.1-10.128-4.849-19.911-9.785-29.695-14.72 0 0 .007-.01-.139-.274-.703-.447-1.26-.631-1.817-.815m-17.974-69.85c-1.032-1.304-2.954-2.604-2.96-3.914-.09-17.855.086-35.71.71-53.464 17.677 9.243 34.84 18.384 52.048 27.972.073 18.34.103 36.234-.228 54.246-6.885-3.117-13.436-6.3-19.928-9.602-9.903-5.036-19.764-10.154-29.642-15.238"/><path d="M143.818 171.218c-17.164-9.14-34.328-18.282-51.635-27.721a385 385 0 0 1 19.67-11.455c9.18-4.992 18.357-10.005 27.724-14.624 2.084-1.028 4.957-.456 8.014-.27 1.947 1.202 3.311 2.122 4.753 2.895 14.26 7.64 28.533 15.256 42.583 23.16-17.182 9.525-34.146 18.77-51.109 28.015m166.12 34.798c.109 16.659.32 33.319.174 49.976-.015 1.754-1.726 4.242-3.34 5.12-15.939 8.66-32.023 17.053-48.432 25.115a1460 1460 0 0 1-.188-55.24c2.409-1.18 4.518-2.117 6.555-3.19 13.266-6.997 26.488-14.077 39.81-20.965 1.536-.794 3.601-.569 5.421-.816m.057-59.988c.087 16.607.243 33.215.153 49.82-.009 1.61-1.546 3.212-3.104 4.98-1.368.34-2.06.41-2.631.71-13.535 7.08-27.065 14.17-40.56 21.323-.788.417-1.281 1.388-2.147 2.148-.236.048-.649.297-.92.225-1.12.023-1.97.118-2.838-.284-.067-18.244-.114-35.992.163-53.912 16.825-8.826 33.327-17.48 50.099-26.018.775.414 1.28.71 1.785 1.008m-2.055-1.124c-16.502 8.654-33.004 17.308-50.155 26.025a1690 1690 0 0 1-51.641-27.485c15.634-8.73 31.214-17.134 46.856-25.214.493.627.925.93 1.356 1.232l.63-2.575s.271-.131.814-.028c5.909 2.883 11.202 5.815 16.67 8.377 2.693 1.262 5.708 1.84 8.578 2.727 0 0-.055.025-.015.372 4.116 5.81 9.839 7.975 16.38 8.499 0 0 .305-.043.479.39 3.465 2.85 6.756 5.264 10.047 7.68m-29.295-11.477-2.493-1.818-.831 2.586c.993-.058 1.986-.116 3.324-.768m18.894 8.286-1.73-.334-.015 1.225c.58-.097 1.158-.194 1.745-.891M208.277 88.88s.379.031.674.326c.528.552.817.692 1.163.714 0 0-.076-.036-.036.339 2.05 1.143 4.06 1.911 6.07 2.679.52.16 1.038.322 1.86.987.881.682 1.46.858 2.04 1.035 0 0-.042.043.073.25.412.364.71.519 1.007.674 0 0-.012-.068.002.293 3.43 3.4 6.968 6.166 11.943 5.761 0 0-.083.028-.009.38 1.171.733 2.267 1.115 3.364 1.498 0 0 .301-.021.47.418 4.142 2.784 8.109 5.141 12.118 7.425.153.088.71-.533 1.078-.823.678.395 1.356.79 1.803 1.7a816 816 0 0 1-29.626 16.305c-7.345 3.847-14.826 7.437-22.565 10.997-16.777-8.8-33.236-17.455-49.628-26.428 1.005-1.37 1.943-2.425 2.881-3.48 0 0 .048.054.328.039.74-.375 1.2-.735 1.661-1.095 0 0 .029.097.412.099 5.098.208 8.389-2.001 10.613-6.023 0 0 .03.046.316.029.753-.363 1.22-.708 1.688-1.054 0 0 .017.07.299.051.76-.352 1.237-.686 1.714-1.02 0 0 .01.046.382.047 2.465-1.325 4.558-2.652 6.65-3.978.457-.32.914-.64 1.863-.742 5.013-2.321 9.535-4.863 14.057-7.404 0 0 .05.096.417.097 3.826-.705 7.283-1.411 10.74-2.118 0 0-.072.014.077.35 1.466.781 2.784 1.227 4.101 1.673m-14.151 121.064c3.442-.132 6.884-.265 10.624-.682 12.46 6.07 24.648 12.377 36.772 18.804 3.606 1.911 7.034 4.158 10.24 6.622-17.168 9.396-34.031 18.421-50.895 27.446-17.048-9.017-34.096-18.035-51.436-27.477.427-1.052 1.057-1.848 1.878-2.28 14.259-7.505 28.54-14.964 42.817-22.433"/><path d="M200.899 262.59c16.832-9.48 33.695-18.505 50.94-27.548.643 1.73 1.124 3.477 1.134 5.226.084 14.555.082 29.11.18 44.11-9.127 10.328-21.78 14.557-33.208 20.798-1.581.864-2.86 2.406-4.508 2.995-2.627.939-5.445 1.34-8.225 1.978 1.404 4.185-2.98 3.598-5.843 4.832-.39-17.281-.415-34.608-.47-52.39m32.924 30.624 1.157 1.603 1.543-2.04c-.719.036-1.437.072-2.7.437m-40.956-92.06c-6.554 3.155-13.18 6.173-19.647 9.497-9.574 4.92-19.036 10.056-28.885 15.12-.371-17.873-.401-35.767-.474-54.107 16.92-9.692 33.884-18.937 51.066-28.463.508 1.469 1.037 3.217 1.047 4.968.083 13.494.042 26.989.104 40.483.009 1.793.38 3.584.751 6.137.202 1.823.234 2.884-.047 4.118a946 946 0 0 0-3.915 2.247m12.114-57.174c.187-.026.373-.052.834-.144 17.29 9.008 34.305 18.082 51.646 27.264.373 17.857.42 35.605.086 53.862-2.239-.144-4.211-.58-5.938-1.485-8.972-4.702-17.838-9.606-26.828-14.273-5.139-2.668-10.442-5.019-15.894-7.745-1.54-.993-2.855-1.753-4.103-2.899.067-1.425.066-2.465.116-3.974.061-17.181.071-33.894.081-50.606"/></svg>
